!!!OTL: Studentenleben.
!!!OTL-incipit: WIR STUDENTEN LEBEN TAEGLICH MUNTER
!!!COM: Studentenweise
!!!ARE: Europa, Mitteleuropa, Deutschland
!!!SCT: F0538
!!!TXL: @@DE
!!!YEM: Copyright 1995, estate of Helmut Schaffrath.
**kern	**text
*ICvox	*
*clefG2	*
*M3/4	*
*k[f#]	*
*G:	*
=1	=1
!LO:TX:a:t=Halbchor.	!
!LO:TX:a:t=Friſch, aber nicht ſchnell.	!
!LO:TX:a:t=P:only the highest voice encoded:problem	!
{8.g	Wir
16g	Studen-
4g	.
4d	-ten
=2	=2
8.b/	le-
16b/	-ben
4b/	täg-
4g}	-lich
=3	=3
{8.b/	munter,
16cc/	.
4.dd/	lu-
8ee/	-ſtig,
=4	=4
8.dd/	fröhlich,
16cc/	.
(>4cc/	gut.
8b/)	.
8r}	.
=5	=5
{8.g	Burſche
16g	.
4g	e-
4d	-wig,
=6	=6
8.b/	wär'
16b/	es
4b/	mög-
4g}	-lich,
=7	=7
{8.b/	Burſche
16cc/	.
4.dd/	ha-
8ee/	-ben
=8	=8
8.dd/	all-
16cc/	-ʒeit
(>4cc/	Muth.
8b/)	.
8r}	.
=9	=9
{8.dd	Brüder,
16dd	.
4dd	trinkt,
4g	ſchenkt
=10	=10
8.ee	wie-
16ee	-der
4.ee	ein,
8r}	.
=11	=11
{8.dd	laßt
16dd	uns
(4dd	Al-
8cc)	.
8b	-le
=12	=12
8.b/	fröh-
16a	-lich
4.a	ſein!
8r}	.
=13	=13
!LO:TX:a:t=Alle.	!
{8.dd	Brü-
16dd	-der
4b	trinkt,
8dd/L	ſchenkt
8ffnJ	.
=14	=14
8.ee/	wie-
16ee/	-der
2ee/}	ein,
=15	=15
{8.dd/	laßt
16cc/	uns
(>4b/	Al-
8cc/)	.
8f#	-le
=16	=16
8.a	fröh-
16g	-lich
4.g	ſein!
8r}	.
==	==
!!!AGN: Studenten -, Trink - Lied
!!!ONB: ESAC (Essen Associative Code) Database: FINK
!!!AMT: simple triple
!!!AIN: vox
!!!EED: Helmut Schaffrath
!!!EEV: 1.0
!!!RDF**kern: > = above
!!!GTL: Studentenlieder
!!Text: Studentenlied
!!!source: Musikalischer Hausschatz der Deutschen. Eine Sammlung von über 1000 Liedern und Gesängen mit Singstimmen und Klavierbegleitung. Leipzig, Litterarisches Verlags-Haus.
!!!page: 345
!!!URL-scan: https://www.digitale-sammlungen.de/en/view/bsb11144622?page=322
!!!ENC: Anna Maria Matuszewska
!!!EEV: 2024/08/02
*-	*-